packages/sources/assets/src/assets/flag-tz.svg

<svg width="28" height="20" viewBox="0 0 28 20" fill="none" xmlns="http://www.w3.org/2000/svg">
<rect width="28" height="20" rx="2" fill="white"/>
<mask id="mask0_503_2652" style="mask-type:alpha" maskUnits="userSpaceOnUse" x="0" y="0" width="28" height="20">
<rect width="28" height="20" rx="2" fill="white"/>
</mask>
<g mask="url(#mask0_503_2652)">
<path fill-rule="evenodd" clip-rule="evenodd" d="M0 13.3333L28 0H0V13.3333Z" fill="#33CC4D"/>
<path fill-rule="evenodd" clip-rule="evenodd" d="M0 20H28V6.66667L0 20Z" fill="#2DAFE4"/>
<path fill-rule="evenodd" clip-rule="evenodd" d="M3.08239 22.6667L30.1707 5.74002L24.9176 -2.6667L-2.17072 14.26L3.08239 22.6667Z" fill="#FFD84F"/>
<path fill-rule="evenodd" clip-rule="evenodd" d="M-0.629192 23.0719L32.162 2.58172L28.6292 -3.07193L-4.16199 17.4183L-0.629192 23.0719Z" fill="#262626"/>
</g>
</svg>

<svg width="28" height="20" fill="none" xmlns="http://www.w3.org/2000/svg"><rect width="28" height="20" rx="2" fill="#fff"/><mask id="a" style="mask-type:alpha" maskUnits="userSpaceOnUse" x="0" y="0" width="28" height="20"><rect width="28" height="20" rx="2" fill="#fff"/></mask><g mask="url(#a)" fill-rule="evenodd" clip-rule="evenodd"><path d="M0 13.333 28 0H0v13.333Z" fill="#33CC4D"/><path d="M0 20h28V6.667L0 20Z" fill="#2DAFE4"/><path d="M3.082 22.667 30.171 5.74l-5.253-8.407L-2.171 14.26l5.253 8.407Z" fill="#FFD84F"/><path d="m-.63 23.072 32.792-20.49-3.533-5.654-32.791 20.49 3.533 5.654Z" fill="#262626"/></g></svg>
